flaticon/symbols/time-changes.svg

<svg xmlns="http://www.w3.org/2000/svg" width="32" height="32" viewBox="0 0 24 24">
    <path d="M 11.699219 7.832031 C 11.773438 7.921875 11.886719 7.96875 12 7.96875 C 12.113281 7.96875 12.226562 7.921875 12.300781 7.832031 L 17.175781 2.261719 C 17.277344 2.144531 17.304688 1.976562 17.238281 1.835938 C 17.171875 1.691406 17.03125 1.601562 16.875 1.601562 L 7.125 1.601562 C 6.96875 1.601562 6.828125 1.691406 6.761719 1.835938 C 6.695312 1.976562 6.722656 2.144531 6.824219 2.261719 Z M 12 2.398438 L 15.992188 2.398438 L 12 6.960938 L 8.007812 2.398438 Z M 12 2.398438"/>
    <path d="M 19.292969 21.660156 C 21.039062 19.074219 22 15.660156 22 12 C 22 8.320312 21.03125 4.894531 19.265625 2.300781 L 20.699219 0.664062 C 20.804688 0.546875 20.828125 0.378906 20.765625 0.234375 C 20.699219 0.0898438 20.558594 0 20.398438 0 L 3.601562 0 C 3.441406 0 3.300781 0.0898438 3.234375 0.234375 C 3.171875 0.378906 3.195312 0.546875 3.296875 0.664062 L 4.730469 2.300781 C 2.96875 4.894531 2 8.320312 2 12 C 2 15.660156 2.960938 19.074219 4.707031 21.660156 L 3.292969 23.34375 C 3.195312 23.460938 3.171875 23.628906 3.238281 23.769531 C 3.304688 23.910156 3.445312 24 3.601562 24 L 20.398438 24 C 20.554688 24 20.695312 23.910156 20.761719 23.769531 C 20.828125 23.628906 20.804688 23.460938 20.707031 23.34375 Z M 21.199219 12 C 21.199219 15.410156 20.335938 18.59375 18.757812 21.023438 L 17.925781 20.035156 C 19.261719 17.820312 20 14.984375 20 12 C 20 8.972656 19.246094 6.113281 17.878906 3.886719 L 18.722656 2.921875 C 20.324219 5.359375 21.199219 8.5625 21.199219 12 Z M 17.386719 19.390625 L 12.304688 13.34375 C 12.230469 13.253906 12.117188 13.199219 12 13.199219 C 11.882812 13.199219 11.769531 13.253906 11.695312 13.34375 L 6.613281 19.390625 C 5.441406 17.335938 4.800781 14.734375 4.800781 12 C 4.800781 9.21875 5.460938 6.582031 6.667969 4.511719 L 11.699219 10.261719 C 11.773438 10.351562 11.882812 10.398438 12 10.398438 C 12.117188 10.398438 12.226562 10.351562 12.300781 10.261719 L 17.332031 4.511719 C 18.539062 6.582031 19.199219 9.21875 19.199219 12 C 19.199219 14.734375 18.558594 17.335938 17.386719 19.390625 Z M 4.480469 0.800781 L 19.519531 0.800781 L 18.460938 2.007812 L 12 9.390625 L 5.539062 2.007812 Z M 2.800781 12 C 2.800781 8.5625 3.675781 5.359375 5.277344 2.921875 L 6.121094 3.886719 C 4.753906 6.113281 4 8.972656 4 12 C 4 14.984375 4.738281 17.820312 6.074219 20.035156 L 5.242188 21.023438 C 3.664062 18.59375 2.800781 15.410156 2.800781 12 Z M 4.457031 23.199219 L 6.867188 20.332031 L 12 14.222656 L 19.542969 23.199219 Z M 4.457031 23.199219"/>
    <path d="M11.695312 15.832031L6.726562 21.742188C6.628906 21.863281 6.605469 22.027344 6.671875 22.167969 6.738281 22.308594 6.878906 22.398438 7.035156 22.398438L16.964844 22.398438C17.121094 22.398438 17.261719 22.308594 17.328125 22.167969 17.394531 22.027344 17.371094 21.863281 17.273438 21.742188L12.304688 15.832031C12.15625 15.648438 11.84375 15.648438 11.695312 15.832031zM16.109375 21.601562L7.890625 21.601562 12 16.710938zM17.199219 12.800781L17.199219 10.800781C17.199219 10.578125 17.019531 10.398438 16.800781 10.398438L7.199219 10.398438C6.980469 10.398438 6.800781 10.578125 6.800781 10.800781L6.800781 12.800781C6.800781 13.019531 6.980469 13.199219 7.199219 13.199219L16.800781 13.199219C17.019531 13.199219 17.199219 13.019531 17.199219 12.800781zM16.398438 12.398438L7.601562 12.398438 7.601562 11.199219 16.398438 11.199219zM16.398438 12.398438"/>
    <path d="M13.601562 20C13.601562 19.117188 12.882812 18.398438 12 18.398438 11.117188 18.398438 10.398438 19.117188 10.398438 20 10.398438 20.882812 11.117188 21.601562 12 21.601562 12.882812 21.601562 13.601562 20.882812 13.601562 20zM12 20.800781C11.558594 20.800781 11.199219 20.441406 11.199219 20 11.199219 19.558594 11.558594 19.199219 12 19.199219 12.441406 19.199219 12.800781 19.558594 12.800781 20 12.800781 20.441406 12.441406 20.800781 12 20.800781zM10.398438 4C10.398438 4.882812 11.117188 5.601562 12 5.601562 12.882812 5.601562 13.601562 4.882812 13.601562 4 13.601562 3.117188 12.882812 2.398438 12 2.398438 11.117188 2.398438 10.398438 3.117188 10.398438 4zM12 3.199219C12.441406 3.199219 12.800781 3.558594 12.800781 4 12.800781 4.441406 12.441406 4.800781 12 4.800781 11.558594 4.800781 11.199219 4.441406 11.199219 4 11.199219 3.558594 11.558594 3.199219 12 3.199219zM12 3.199219"/>
</svg>

<svg xmlns="http://www.w3.org/2000/svg" width="32" height="32" viewBox="0 0 24 24">
    <path d="M11.7 7.832a.39.39 0 0 0 .3.137.39.39 0 0 0 .3-.137l4.876-5.57a.398.398 0 0 0-.3-.66H7.124a.398.398 0 0 0-.3.66zm.3-5.434h3.992L12 6.961 8.008 2.398zm0 0"/>
    <path d="M19.293 21.66C21.039 19.074 22 15.66 22 12c0-3.68-.969-7.105-2.734-9.7L20.699.665A.4.4 0 0 0 20.4 0H3.601a.4.4 0 0 0-.305.664L4.73 2.301C2.97 4.895 2 8.32 2 12c0 3.66.96 7.074 2.707 9.66l-1.414 1.684a.402.402 0 0 0 .309.656h16.796a.401.401 0 0 0 .309-.656zM21.199 12c0 3.41-.863 6.594-2.441 9.023l-.832-.988C19.262 17.82 20 14.985 20 12c0-3.027-.754-5.887-2.121-8.113l.844-.965c1.601 2.437 2.476 5.64 2.476 9.078zm-3.812 7.39l-5.082-6.046a.4.4 0 0 0-.305-.145.4.4 0 0 0-.305.145L6.613 19.39C5.441 17.336 4.801 14.734 4.801 12c0-2.781.66-5.418 1.867-7.488l5.031 5.75c.074.09.184.136.301.136a.384.384 0 0 0 .3-.136l5.032-5.75c1.207 2.07 1.867 4.707 1.867 7.488 0 2.734-.64 5.336-1.812 7.39zM4.48.8h15.04l-1.06 1.208L12 9.39 5.54 2.008zM2.8 12c0-3.438.876-6.64 2.477-9.078l.844.965C4.754 6.113 4 8.973 4 12c0 2.984.738 5.82 2.074 8.035l-.832.988C3.664 18.593 2.801 15.41 2.801 12zm1.657 11.2l2.41-2.868L12 14.222l7.543 8.977zm0 0"/>
    <path d="M11.695 15.832l-4.968 5.91a.401.401 0 0 0 .309.656h9.929a.401.401 0 0 0 .308-.656l-4.968-5.91a.406.406 0 0 0-.61 0zm4.414 5.77H7.891L12 16.71zm0 0M17.2 12.8v-2a.401.401 0 0 0-.4-.402H7.2a.401.401 0 0 0-.4.403v2a.4.4 0 0 0 .4.398h9.6a.4.4 0 0 0 .4-.398zm-.802-.402H7.602V11.2h8.796zm0 0"/>
    <path d="M13.602 20c0-.883-.72-1.602-1.602-1.602-.883 0-1.602.72-1.602 1.602 0 .883.72 1.602 1.602 1.602.883 0 1.602-.72 1.602-1.602zM12 20.8a.802.802 0 0 1 0-1.6.802.802 0 0 1 0 1.6zm0 0M10.398 4c0 .883.72 1.602 1.602 1.602.883 0 1.602-.72 1.602-1.602 0-.883-.72-1.602-1.602-1.602-.883 0-1.602.72-1.602 1.602zM12 3.2a.802.802 0 0 1 0 1.6.802.802 0 0 1 0-1.6zm0 0"/>
</svg>
